X:1
T:Title
%%score { ( 1 3 ) | 2 }
L:1/8
M:3/4
K:Eb
V:1 treble nm="Grand Piano"
V:3 treble 
V:2 bass 
V:1
 z2 z2[Q:1/4=90] [GB]2 | [GB]3 [Ac] [GB]G | [Be]4 [Ec]2 | [DB]3 [EG] [DF][EG] | E3 B GA | %5
 B3 c B=A | B3 B [Ge][Bd] | [Ac][GB] [Ac][GB] E[CF] | z2 z2 A2 | [EGB]4 [Ec]2 | %10
 [EFB]3 [B,EG] [B,DF][A,EG] | [G,E]4 z2 |] %12
V:2
 z2 z2 [E,E]2 | [E,E]3 [E,E] [E,E][E,E] | [E,B,]4 [A,,A,]2 | [B,,F,]3 [B,,B,] [B,,B,][B,,B,] | %4
 [E,G,B,]3[K:treble] G EF | G3 A G_G | G3[K:bass] [E,G,E] [E,B,][E,G,] | %7
 [E,E][E,E] [E,E][E,E] [G,,G,][A,,A,] | [B,,B,]4 [C,C]D, | E,4 A,2 | B,3 B,, B,,B,, | E,4 z2 |] %12
V:3
 x6 | x6 | x6 | x6 | x6 | x6 | x6 | x6 | [EG]4 E[DF] | x6 | x6 | x6 |] %12

